src/hero/icons/instagram.svg

<svg height="20" viewBox="0 0 21 20" width="21" xmlns="http://www.w3.org/2000/svg"><path d="m10.7646 20.0004c-.0662 0-.1324 0-.1991-.0003-1.56777.0038-3.01634-.036-4.42509-.1217-1.29155-.0786-2.47049-.5249-3.40955-1.2906-.90611-.7389-1.52487-1.7378-1.839063-2.9689-.273448-1.0718-.287944-2.1239-.30183-3.1415-.010072-.7301-.020448-1.5953-.022584-2.4751.002136-.88352.012512-1.74869.022584-2.47883.013886-1.01745.028382-2.06955.30183-3.14148.314193-1.23108.932953-2.23007 1.839063-2.9689.93906-.765685 2.118-1.212005 3.4097-1.290588 1.40875-.0856013 2.85763-.12557935 4.42874-.12176465 1.5682-.00335694 3.0163.03616335 4.4251.12176465 1.2915.078583 2.4704.524903 3.4095 1.290588.9063.73883 1.5249 1.73782 1.8391 2.9689.2734 1.07178.2879 2.12403.3018 3.14148.0101.73014.0206 1.59531.0226 2.47513v.0037c-.002.8798-.0125 1.745-.0226 2.4751-.0139 1.0174-.0282 2.0695-.3018 3.1415-.3142 1.2311-.9328 2.23-1.8391 2.9689-.9391.7657-2.118 1.212-3.4095 1.2906-1.3491.0821-2.735.122-4.2298.122zm-.1991-1.5628c1.5422.0037 2.9583-.0352 4.3339-.1188.9766-.0594 1.8234-.3763 2.5171-.942.6412-.5229 1.0828-1.2443 1.3124-2.1443.2277-.8922.2408-1.8501.2535-2.7765.0099-.7252.0203-1.5843.0224-2.4556-.0021-.8714-.0125-1.73031-.0224-2.45556-.0127-.92637-.0258-1.88431-.2535-2.77665-.2296-.89996-.6712-1.6214-1.3124-2.14431-.6937-.56549-1.5405-.88242-2.5171-.94178-1.3756-.08377-2.7917-.12237-4.3303-.11902-1.54192-.00366-2.95814.03525-4.33378.11902-.9766.05936-1.82334.37629-2.51703.94178-.6412.52291-1.0828 1.24435-1.31246 2.14431-.22767.89234-.24079 1.85013-.25346 2.77665-.00991.72586-.02029 1.58538-.02243 2.45746.00214.8682.01252 1.7279.02243 2.4537.01267.9264.02579 1.8843.25346 2.7765.22966.9.67126 1.6214 1.31246 2.1443.69369.5655 1.54043.8825 2.51703.9418 1.37564.0838 2.79216.1228 4.33018.119zm-.0373-3.5544c-2.69232 0-4.88296-2.1904-4.88296-4.8828 0-2.69238 2.19064-4.88278 4.88296-4.88278 2.6926 0 4.883 2.1904 4.883 4.88278 0 2.6924-2.1904 4.8828-4.883 4.8828zm0-8.20308c-1.83078 0-3.3204 1.48956-3.3204 3.32028 0 1.8308 1.48962 3.3203 3.3204 3.3203 1.831 0 3.3205-1.4895 3.3205-3.3203 0-1.83072-1.4895-3.32028-3.3205-3.32028zm5.4299-3.125c-.6471 0-1.1719.5246-1.1719 1.17187 0 .64728.5248 1.17188 1.1719 1.17188.6473 0 1.172-.5246 1.172-1.17188 0-.64727-.5247-1.17187-1.172-1.17187z"/></svg>

<svg width="21" height="20" viewBox="0 0 21 20" xmlns="http://www.w3.org/2000/svg">
<path d="M10.7646 20.0004C10.6984 20.0004 10.6322 20.0004 10.5655 20.0001C8.99773 20.0039 7.54916 19.9641 6.14041 19.8784C4.84886 19.7998 3.66992 19.3535 2.73086 18.5878C1.82475 17.8489 1.20599 16.85 0.891797 15.6189C0.618349 14.5471 0.603853 13.495 0.589967 12.4774C0.579895 11.7473 0.569519 10.8821 0.567383 10.0023C0.569519 9.11878 0.579895 8.25361 0.589967 7.52347C0.603853 6.50602 0.618349 5.45392 0.891797 4.38199C1.20599 3.15091 1.82475 2.15192 2.73086 1.41309C3.66992 0.647405 4.84886 0.201085 6.14056 0.122502C7.54931 0.0369007 8.99819 -0.00307735 10.5693 0.000737348C12.1375 -0.00261959 13.5856 0.0369007 14.9944 0.122502C16.2859 0.201085 17.4648 0.647405 18.4039 1.41309C19.3102 2.15192 19.9288 3.15091 20.243 4.38199C20.5164 5.45377 20.5309 6.50602 20.5448 7.52347C20.5549 8.25361 20.5654 9.11878 20.5674 9.9986V10.0023C20.5654 10.8821 20.5549 11.7473 20.5448 12.4774C20.5309 13.4948 20.5166 14.5469 20.243 15.6189C19.9288 16.85 19.3102 17.8489 18.4039 18.5878C17.4648 19.3535 16.2859 19.7998 14.9944 19.8784C13.6453 19.9605 12.2594 20.0004 10.7646 20.0004ZM10.5655 18.4376C12.1077 18.4413 13.5238 18.4024 14.8994 18.3188C15.876 18.2594 16.7228 17.9425 17.4165 17.3768C18.0577 16.8539 18.4993 16.1325 18.7289 15.2325C18.9566 14.3403 18.9697 13.3824 18.9824 12.456C18.9923 11.7308 19.0027 10.8717 19.0048 10.0004C19.0027 9.129 18.9923 8.27009 18.9824 7.54484C18.9697 6.61847 18.9566 5.66053 18.7289 4.76819C18.4993 3.86823 18.0577 3.14679 17.4165 2.62388C16.7228 2.05839 15.876 1.74146 14.8994 1.6821C13.5238 1.59833 12.1077 1.55973 10.5691 1.56308C9.02718 1.55942 7.61096 1.59833 6.23532 1.6821C5.25872 1.74146 4.41198 2.05839 3.71829 2.62388C3.07709 3.14679 2.63549 3.86823 2.40583 4.76819C2.17816 5.66053 2.16504 6.61832 2.15237 7.54484C2.14246 8.2707 2.13208 9.13022 2.12994 10.0023C2.13208 10.8705 2.14246 11.7302 2.15237 12.456C2.16504 13.3824 2.17816 14.3403 2.40583 15.2325C2.63549 16.1325 3.07709 16.8539 3.71829 17.3768C4.41198 17.9423 5.25872 18.2593 6.23532 18.3186C7.61096 18.4024 9.02748 18.4414 10.5655 18.4376ZM10.5282 14.8832C7.83588 14.8832 5.64524 12.6928 5.64524 10.0004C5.64524 7.30802 7.83588 5.11762 10.5282 5.11762C13.2208 5.11762 15.4112 7.30802 15.4112 10.0004C15.4112 12.6928 13.2208 14.8832 10.5282 14.8832ZM10.5282 6.68012C8.69742 6.68012 7.2078 8.16968 7.2078 10.0004C7.2078 11.8312 8.69742 13.3207 10.5282 13.3207C12.3592 13.3207 13.8487 11.8312 13.8487 10.0004C13.8487 8.16968 12.3592 6.68012 10.5282 6.68012ZM15.9581 3.55512C15.311 3.55512 14.7862 4.07972 14.7862 4.72699C14.7862 5.37427 15.311 5.89887 15.9581 5.89887C16.6054 5.89887 17.1301 5.37427 17.1301 4.72699C17.1301 4.07972 16.6054 3.55512 15.9581 3.55512Z"/>
</svg>
